X:1
T:Hoc corpus - Robledo
T:#
%%score [ 1 2 3 4 ]
L:1/8
Q:1/4=100
M:2/2
K:C
V:1 treble nm="Soprano" snm="S"
V:2 treble nm="Alto" snm="A"
V:3 treble-8 nm="Tenor" snm="T"
V:4 bass nm="Bass" snm="B"
V:1
"^Melchor Robledo\n(1510-1586)""^Hoc corpus" (G4 A4) | A4 (G3 A | B2 c4) B2 | (cBAG ^FE F2) | G8 | %5
w: Hoc *|cor- pus, *|* * hoc|cor\- * * * * * *|pus,|
 z4 (G4 | A4) A4 |[M:2/2] G4 (A3 B | cd) (c4 B2) | c4 z2 (c2- | c2 B2) (A2 G2- | G2 ^FE F4) | %12
w: hoc|* cor-|pus, hoc *|* * cor\- *|pus, hoc|* * cor\- *||
 G4 z2 G2- | G2 E2 (G2 A2) | G4 E4 | (E6 F2 | G4 A4) | D8 | z2 G2 G4 | G4 G2 G2 | A2 B2 c4 | %21
w: pus, quod|* pro vo\- *|bis tra-|de\- *||tur:|hic ca-|lix no- vi|tes- ta- men-|
 A4 B4 | z2 G2 G3 G | F2 E2 D4 | z2 G2 A2 B2 | c6 (BA) | B2 G2 F2 E2 | (F2 G4) ^F2 | G4 B4 | %29
w: ti est|in me- o|san- gui- ne,|in me- o|san- gui\- *|ne, in me- o|san\- * gui-|ne, di-|
 c4 A4 | G4 G4- | G4 ^F4 | G4 (E4 | D4) D4 |[M:3/2] D4 z4 G4 |:[M:2/2] G6 G2 | G4 z2 G2 | %37
w: cit Do-|mi- nus,|* di-|cit Do\-|* mi-|nus: Hoc|fa- ci-|te, quo-|
 G2 G2 A4 | G4 (A2 B2 | c6) (BA) | B4 z2 G2 | A4 G4 | z2 G2 A3 G |[M:2/2] F2 E2 D4 | C2 C2 D2 E2 | %45
w: ti- es- cum-|que su\- *|* mi\- *|tis, in|me- am|com- me- mo-|ra- ti o-|nem, com- me- mo-|
 F4 G4 | (A2 G4 ^F2) | G2 G2 A2 B2 | c6 B2 |1 B4 c2 A2 | A2 G2 ^F2 G2- |[M:3/2] G2 ^F2 G4 z2 G2 :|2 %52
w: ra- ti-|o\- * *|nem, com- me- mo-|ra- ti-|o- nem, com-|me- mo- ra- ti\-|* o- nem. Hoc|
[M:2/2] B4 c2 A2 || A2 G2 (^F2 G2- | G2) (^FE) F4 |[Q:1/4=97] G8- |[Q:1/4=93] G8 |[Q:1/4=89] G8 | %58
w: o- nem, com-|me- mo- ra\- *|* ti\- * o-|nem.|||
[Q:1/4=85] G8 |[Q:1/4=84] !fermata!G8 |] %60
w: ||
V:2
 z8 | (D4 E4) | E4 D4 | z2 C2 (D3 C | B,A, B,2) G,4 | (D4 E4) | (E4 D4- |[M:2/2] D2 G4 ^F2) | %8
w: |Hoc *|cor- pus,|hoc cor\- *|* * * pus,|hoc *|cor\- *||
 G4 z2 G2 | (F2 ED E2 ^F2 | G3 =F ED E2) | D4 z2 D2- | D2 B,2 (D2 E2) | D2 C2 (B,2 A,2 | B,4 C4 | %15
w: pus, hoc|cor\- * * * *||pus, quod|* pro vo\- *|bis tra- de\- *|* tur,|
 z2 C4 A,2 | (C2 D2) C2 C2- | C2 B,A,) B,4 | z2 D2 D4 | E4 D4 | E2 G4 (^FE) | ^F2 F2 G4 | %22
w: quod pro|vo\- * bis tra\-|* de\- * tur:|hic ca-|lix no-|vi tes- ta\- *|men- ti est|
 z2 D2 E3 D | C2 B,2 A,2 A,2 | C2 B,2 (A,G, G,2- | G,2 ^F,2) G,4- | G,4 z2 C2 | C2 C2 D3 C | %28
w: in me- o|san- gui- ne, in|me- o san\- * *|* * ne,|* in|me- o san- gui-|
 B,4 z2 G2 | E4 (F4 | E2 DC D2) D2 | E4 D4 | B,4 (C4 | B,2 A,G, A,2) A,2 |[M:3/2] B,4 z4 D4 |: %35
w: ne, di-|cit Do\-|* * * * mi-|nus, di-|cit Do\-|* * * * mi-|nus: Hoc|
[M:2/2] D6 D2 | E4 z2 E2 | E2 E2 F4 | (E3 D) (E^F G2- | G2) ^F2 G4- | G4 E4 | F4 E4- | E4 z4 | %43
w: fa- ci-|te, quo-|ti- es- cum-|que * su\- * *|* mi- tis,|* in|me- am||
[M:2/2] z4 z2 G2 | F2 E2 D2 (C2- | CB,) (B,A,) C2 E2 | E2 E2 D4 | B,2 (E4 D2 | C4 D2 G2 |1 %49
w: com-|me- mo- ra- ti\-|* * o\- * nem, com-|me- mo ra-|ti- o\- *|* nem, com-|
 G2 G2 F2 E2 | (F2 D4 ^C2) |[M:3/2] D8 z2 D2 :|2[M:2/2] G2 G2 F2 E2 || F2 D4 ^C2) | D8- | %55
w: me- mo ra- ti-|o\- * *|nem. Hoc|me- mo- ra- ti-|o\- * *|nem,|
 D4 z2 D2 | E3 D C2 B,2 | (C3 D E2 D2 | E4) D4- | !fermata!D8 |] %60
w: * com-|me- mo- ra- ti-|o\- * * *|* nem.||
V:3
 z8 | z8 | z4 (G4 | A4) (A4 | G3 A B2 c2- | c2 B2) c2 (c2- | cBAG) (^FE F2) | %7
w: ||Hoc|* cor\-||* * pus, hoc|* * * * cor\- * *|
[M:2/2][K:treble-8] G4 (d4 | e4) d4 | c4 (c4 | d4) (c4 | B2 AG A4) | G4 z4 | z8 | z2 G4 E2 | %15
w: pus, hoc|* cor-|pus, hoc|* cor\-||pus,||quod pro|
 (G2 A2) G2 F2 | (ED G3 ^F/E/ F2) | G8 | B4 B4 | c4 G2 G2 | c2 d2 c4 | c4 d4 | z2 G2 c3 B | %23
w: vo\- * bis tra-|de\- * * * * *|tur:|hic ca-|lix no- vi|tes- ta- men-|ti est|in me- o|
 (AG G4) ^F2 | G4 z4 | A4 d4- | d2 d2 (c3 B | A2 G2) A4 | G2 d4 e2- | e2 (c4 d2- | dc c4) B2 | %31
w: san\- * * gui-|ne,|in me\-|* o san\- *|* * gui-|ne, di- cit|* Do\- *|* * * mi-|
 c4 (A2 B2- | B2) G4 (A2- | AG G4) ^F2 |[M:3/2] G4 z4 B4 |:[M:2/2][K:treble-8] B6 B2 | c4 z2 c2 | %37
w: nus, di\- *|* cit Do\-|* * * mi-|nus: Hoc|fa- ci-|te, quo-|
 c2 c2 c4 | (c3 B A2 G2) | c2 c2 d4- | d4 z2 c2 | c4 c4 | z2 c2 F3 G | %43
w: ti- es- cum-|que * * *|su- mi- tis,|* in|me- am|com- me- mo-|
[M:2/2][K:treble-8] AB (c4 B2) | c4 z4 | d4 e3 d | c2 B2 A4 | G2 B2 AG G2- | G^F (FE) G2 d2 |1 %49
w: ra- ti- o\- *|nem,|com- me- mo-|ra- ti- o-|nem, com- me- mo- ra\-|* ti- o\- * nem, com-|
 e2 d2 c4- | c2 B2 (A2 G2 |[M:3/2] A4) G4 z2 B2 :|2[M:2/2] e2 d2 c4- || c2 B2 (A2 G2 | A8) | G8 | %56
w: me- mo ra\-|* ti- o\- *|* nem. Hoc|me- mo- ra\-|* ti- o\- *||nem,|
 z4 z2 d2 | e3 d c2 B2 | (c6 BA) | !fermata!B8 |] %60
w: com-|me- mo- ra- ti-|o\- * *|nem.|
V:4
 z8 | z8 | z8 | z4 (D,4 | E,4) E,4 | D,4 (C,3 B,, | A,,2 C,2) D,4 |[M:2/2] G,,4 z4 | z4 (G,4 | %9
w: |||Hoc|* cor-|pus, hoc *|* * cor-|pus,|hoc|
 A,4) A,4 | G,4 C,4 | D,8 | G,,2 G,4 E,2 | (G,2 A,2) G,2 F,2 | E,4 C,4 | C,2 A,,2 (C,2 D,2) | %16
w: * cor-|pus, hoc|cor-|pus, quod pro|vo\- * bis tra-|de- tur,|quod pro vo\- *|
 C,2 B,,2 A,,4 | G,,8 | G,4 G,4 | C,2 C4 B,2 | A,2 G,2 A,4 | A,4 G,4- | G,4 z4 | z4 D,4 | %24
w: bis tra- de-|tur:|hic ca-|lix no- vi|tes- ta- men-|ti est||in|
 E,3 D, (C,2 B,,2) | A,,4 G,,4 | z2 G,2 A,3 G, | (F,2 E,2) D,4 | G,,4 G,4 | A,4 (F,4 | G,6) G,2 | %31
w: me- o san\- *|gui- ne,|in me- o|san\- * gui-|ne, di-|cit Do\-|* mi-|
 C,4 D,4 | E,4 (C,4 | D,6) D,2 |[M:3/2] G,,4 z4 G,4 |:[M:2/2] G,6 G,2 | C,4 z2 C,2 | C,2 C,2 F,4 | %38
w: nus, di-|cit Do\-|* mi-|nus: Hoc|fa- ci-|te, quo-|ti- es- cum-|
 C,2 (C4 B,2) | A,4 G,4- | G,4 C,4 | F,4 C,4- | C,4 z4 |[M:2/2] z4 G,4 | A,3 G, F,2 E,2 | %45
w: que su\- *|mi- tis,|* in|me- am||com-|me- mo- ra- ti-|
 D,4 C,4- | C,4 D,4 | E,3 D, C,2 B,,2 | A,,4 G,,4 |1 z2 G,2 A,3 G, | F,2 G,2 (D,2 E,2 | %51
w: o- nem,|* com-|me- mo- ra- ti-|o- nem,|com- me- mo-|ra- ti- o\- *|
[M:3/2] D,4) G,,4 z2 G,2 :|2[M:2/2] z2 G,2 A,3 G, || F,2 G,2 D,2 E,2 | D,6 D,2 | G,,4 z2 G,2 | %56
w: * nem. Hoc|in me- am|com- me- mo- ra-|ti- o-|nem, com-|
 C,3 D, (E,^F, G,2) | (C,6 G,,2) | C,4 G,,4- | !fermata!G,,8 |] %60
w: me- mo- ra\- * *|ti\- *|o- nem.||

